X:71
T:PATRARK- The Auld Criple Dow
S:from Rutherford's 24 Country Dances for 1758
Q:1/4=120
L:1/4
M:C|
K:F
c/|(d3/4d/4f3/4a/4) g/f/e/c/|d/e/f/c/ f3/2 c/|\
d3/4e/4f3/4a/4 g/d/e/c/|A/4A/4A/ A/c/ {e/}f::c/|\
A/F/F/A/ B/G/G/B/|A/F/F/A/ d/e/f/c/|A/F/F/A/ B/G/G/c/|\
A/G/A/c/{e}f:|]

